src/images/icons/google cloud.svg

<?xml version="1.0" encoding="UTF-8" standalone="no"?>
<svg
   width="50"
   height="50"
   version="1.1"
   id="svg10"
   sodipodi:docname="google cloud.svg"
   inkscape:version="1.1 (c68e22c387, 2021-05-23)"
   xmlns:inkscape="http://www.inkscape.org/namespaces/inkscape"
   xmlns:sodipodi="http://sodipodi.sourceforge.net/DTD/sodipodi-0.dtd"
   xmlns="http://www.w3.org/2000/svg"
   xmlns:svg="http://www.w3.org/2000/svg">
  <defs
     id="defs14" />
  <sodipodi:namedview
     id="namedview12"
     pagecolor="#ffffff"
     bordercolor="#111111"
     borderopacity="1"
     inkscape:pageshadow="0"
     inkscape:pageopacity="0"
     inkscape:pagecheckerboard="1"
     showgrid="false"
     width="50px"
     inkscape:zoom="13"
     inkscape:cx="25.5"
     inkscape:cy="35.961538"
     inkscape:window-width="1920"
     inkscape:window-height="1017"
     inkscape:window-x="-8"
     inkscape:window-y="80"
     inkscape:window-maximized="1"
     inkscape:current-layer="svg10" />
  <path
     d="m 31.81875,16.006319 1.601563,0.02734 4.351562,-4.35159 0.210938,-1.8437609 C 34.53125,6.7632928 29.974219,4.890625 24.994531,4.890625 c -9.015625,0 -16.6249997,6.134413 -18.8773435,14.44384 0.475,-0.331252 1.490625,-0.08281 1.490625,-0.08281 l 8.6953125,-1.429699 c 0,0 0.446875,-0.739848 0.673437,-0.703129 A 10.84375,10.843817 0 0 1 25,13.574273 c 2.578125,0.0055 4.953125,0.916412 6.81875,2.423452 z"
     fill="#ea4335"
     id="path2"
     style="stroke-width:0.781252" />
  <path
     d="M 43.882812,19.351653 C 42.872656,15.625067 40.790625,12.334421 37.980469,9.8383121 L 31.81875,16.000069 c 2.46875,1.9922 4.052344,5.040656 4.052344,8.453178 v 1.087506 c 2.997656,0 5.432812,2.440641 5.432812,5.432846 0,2.997676 -2.440625,5.432847 -5.432812,5.432847 H 25.005469 l -1.0875,1.093757 v 6.520352 l 1.0875,1.082039 H 35.871094 A 14.148438,14.148526 0 0 0 50,30.974381 C 49.9945,26.165757 47.578125,21.911825 43.882812,19.352434 Z"
     fill="#4285f4"
     id="path4"
     style="stroke-width:0.781252" />
  <path
     d="M 14.128906,45.109625 H 24.988281 V 36.406446 H 14.128906 a 5.3828125,5.382846 0 0 1 -2.235937,-0.48594 l -1.567969,0.480471 -4.3515625,4.35159 -0.38125,1.468759 a 14.0625,14.062587 0 0 0 8.5359375,2.882049 z"
     fill="#34a853"
     id="path6"
     style="stroke-width:0.781252" />
  <path
     d="M 14.128906,16.851637 A 14.148438,14.148526 0 0 0 0,30.979849 c 0,4.588311 2.1976563,8.668023 5.5984375,11.252414 L 11.898438,35.932224 A 5.4375,5.4375338 0 0 1 8.6960937,30.979849 c 0,-2.997674 2.4406253,-5.432846 5.4328123,-5.432846 2.203125,0 4.096875,1.328134 4.953125,3.203145 l 6.3,-6.300039 C 22.798437,19.049307 18.717969,16.851637 14.129687,16.851637 Z"
     fill="#fbbc05"
     id="path8"
     style="stroke-width:0.781252" />
</svg>

<svg width="50" height="50" version="1.1" id="svg10" xmlns="http://www.w3.org/2000/svg">
  <path d="m31.819 16.006 1.601.028 4.352-4.352.21-1.844a19.476 19.476 0 0 0-12.987-4.947c-9.016 0-16.625 6.134-18.878 14.443.475-.33 1.49-.082 1.49-.082l8.696-1.43s.447-.74.674-.703A10.844 10.844 0 0 1 25 13.574a10.87 10.87 0 0 1 6.819 2.424z" fill="#ea4335" id="path2" style="stroke-width:.781252"/>
  <path d="M43.883 19.352a19.588 19.588 0 0 0-5.903-9.514L31.82 16a10.844 10.844 0 0 1 4.052 8.453v1.088a5.44 5.44 0 0 1 5.433 5.433 5.44 5.44 0 0 1-5.433 5.432H25.005L23.918 37.5v6.52l1.087 1.083h10.866A14.148 14.149 0 0 0 50 30.974c-.005-4.808-2.422-9.062-6.117-11.622Z" fill="#4285f4" id="path4" style="stroke-width:.781252"/>
  <path d="M14.129 45.11h10.86v-8.704h-10.86a5.383 5.383 0 0 1-2.236-.485l-1.568.48-4.352 4.352-.38 1.468a14.063 14.063 0 0 0 8.535 2.882z" fill="#34a853" id="path6" style="stroke-width:.781252"/>
  <path d="M14.129 16.852A14.148 14.149 0 0 0 0 30.98c0 4.588 2.198 8.668 5.598 11.252l6.3-6.3a5.438 5.438 0 0 1-3.202-4.952 5.44 5.44 0 0 1 5.433-5.433c2.203 0 4.097 1.328 4.953 3.203l6.3-6.3c-2.584-3.4-6.664-5.598-11.252-5.598Z" fill="#fbbc05" id="path8" style="stroke-width:.781252"/>
</svg>
